X:526
T:Jackson's Morning Brush
R:jig
C:Walker "Piper" Jackson (1716-1798), Co. Limerick
S:Bj\"orn Ericson
Z:id:hn-jig-526
M:6/8
L:1/8
K:D
D2F E2F | DFA AFA | BAB def | gfg edA |
D2F E2F | DFA AFA | BAB d2e |1 fdc dBA :|2 fdc d2g ||
|: fed faf | ede fdB | AFA def | gfg efg |
fed f/g/af | ede fdB | AFA d2e | fdc d2g :|
|: fdf ece | dBd AFA | DFA def | gfg efg |
[1 fdf ece | dBd AFA | DFA d2e | fdc d2g :|
[2 afd gec | dcB AFA | DFA d2e | fdc d2g ||
|: fed faf | gbg faf | fed faf | gfg e2g |
fed faf | gbg faf | fed eag |1 fdc d2g :|2 fdc d3 ||

